public/tokens/matic.svg

<svg width="100" height="100" viewBox="0 0 100 100" fill="none" xmlns="http://www.w3.org/2000/svg">
<g clip-path="url(#clip0_1526_5932)">
<path d="M50 100C77.6142 100 100 77.6142 100 50C100 22.3858 77.6142 0 50 0C22.3858 0 0 22.3858 0 50C0 77.6142 22.3858 100 50 100Z" fill="#8247E5"/>
<path d="M66.5497 39.3023C65.3505 38.6047 63.7914 38.6047 62.4722 39.3023L53.1179 44.6512L46.7619 48.1396L37.4077 53.4884C36.2084 54.186 34.6494 54.186 33.3302 53.4884L25.8947 49.3023C24.6955 48.6047 23.856 47.3256 23.856 45.9302V37.6744C23.856 36.2791 24.5756 35 25.8947 34.3023L33.2102 30.2325C34.4094 29.5349 35.9685 29.5349 37.2878 30.2325L44.6032 34.3023C45.8025 35 46.642 36.2791 46.642 37.6744V43.0232L52.998 39.4186V34.0697C52.998 32.6744 52.2785 31.3953 50.9593 30.6977L37.4077 23.0232C36.2084 22.3256 34.6494 22.3256 33.3302 23.0232L19.5386 30.6977C18.2194 31.3953 17.4999 32.6744 17.4999 34.0697V49.5349C17.4999 50.9302 18.2194 52.2093 19.5386 52.9069L33.3302 60.5814C34.5295 61.2791 36.0885 61.2791 37.4077 60.5814L46.7619 55.3488L53.1179 51.7441L62.4722 46.5116C63.6715 45.814 65.2305 45.814 66.5497 46.5116L73.8652 50.5813C75.0644 51.2791 75.904 52.5581 75.904 53.9535V62.2093C75.904 63.6047 75.1844 64.8837 73.8652 65.5813L66.5497 69.7675C65.3505 70.4651 63.7914 70.4651 62.4722 69.7675L55.1567 65.6977C53.9575 65 53.1179 63.7209 53.1179 62.3256V56.9768L46.7619 60.5814V65.9302C46.7619 67.3256 47.4814 68.6047 48.8007 69.3023L62.5922 76.9768C63.7914 77.6744 65.3505 77.6744 66.6696 76.9768L80.4611 69.3023C81.6604 68.6047 82.4999 67.3256 82.4999 65.9302V50.4651C82.4999 49.0697 81.7803 47.7907 80.4611 47.093L66.5497 39.3023Z" fill="white"/>
</g>
<defs>
<clipPath id="clip0_1526_5932">
<rect width="100" height="100" fill="white"/>
</clipPath>
</defs>
</svg>

<svg xmlns="http://www.w3.org/2000/svg" width="100" height="100" fill="none"><g clip-path="url(#a)"><path fill="#8247E5" d="M50 100c27.614 0 50-22.386 50-50S77.614 0 50 0 0 22.386 0 50s22.386 50 50 50"/><path fill="#fff" d="M66.55 39.302c-1.2-.697-2.759-.697-4.078 0l-9.354 5.35-6.356 3.488-9.354 5.348c-1.2.698-2.759.698-4.078 0l-7.435-4.186c-1.2-.697-2.039-1.976-2.039-3.372v-8.256c0-1.395.72-2.674 2.039-3.372l7.315-4.07c1.2-.697 2.758-.697 4.078 0l7.315 4.07c1.2.698 2.039 1.977 2.039 3.372v5.35l6.356-3.605v-5.35c0-1.395-.72-2.674-2.039-3.371l-13.551-7.675c-1.2-.697-2.759-.697-4.078 0L19.54 30.698a3.75 3.75 0 0 0-2.04 3.372v15.465c0 1.395.72 2.674 2.04 3.372L33.33 60.58c1.2.698 2.759.698 4.078 0l9.354-5.232 6.356-3.605 9.354-5.232c1.2-.698 2.759-.698 4.078 0l7.315 4.07c1.2.697 2.039 1.976 2.039 3.371v8.256c0 1.396-.72 2.675-2.039 3.372l-7.315 4.186c-1.2.698-2.759.698-4.078 0l-7.315-4.07c-1.2-.697-2.04-1.976-2.04-3.371v-5.35l-6.355 3.605v5.35c0 1.395.72 2.674 2.039 3.371l13.791 7.675c1.2.697 2.758.697 4.078 0l13.791-7.675c1.2-.697 2.039-1.976 2.039-3.372V50.465c0-1.395-.72-2.674-2.039-3.372z"/></g><defs><clipPath id="a"><path fill="#fff" d="M0 0h100v100H0z"/></clipPath></defs></svg>
